X: 24981
T: Maid Of Mount Kisco, The
R: reel
M: 4/4
K: Adorian
|:EA~A2 BAAG|EA~A2 BGAG|EG~G2 AG~G2|1 EGDG EGDG|2 EGDG EDB,D||
EA~A2 BAAG|EA~A2 BABd|efge aege|1 dBGB A3G:|2 dBGB ABdB||
|:A2BA dBAB|G2BG DGBG|A^GAB d2Bd|1 efga gedB:|2 efge d2Bd||
|:eaa2 bgaf|gedB GABG|A2a^g a^gab|gede g2eg|
abae gedg|edBd GABd|eA~A2 efge|1 dBGB A3a:|2 dBGB A4||

